fs/sanitize_20_filled.svg

<svg viewBox="0 0 20 20" fill="none" xmlns="http://www.w3.org/2000/svg" height="1em" width="1em">
  <path d="M2.76788 5.23185C1.79157 6.20817 1.79157 7.79108 2.76788 8.76739L6.23234 12.2319C6.34076 12.3403 6.45665 12.4366 6.57837 12.521C6.62001 12.3973 6.67803 12.2783 6.75192 12.1675C7.14743 11.5742 7.65134 11.1474 8.23558 10.904C8.49719 10.795 8.75477 10.731 9 10.699V7.49951C9 6.67108 9.67157 5.99951 10.5 5.99951C10.6951 5.99951 10.8815 6.03677 11.0525 6.10456C11.1221 5.84907 11.2575 5.62072 11.4393 5.43885L8.76788 2.76739C7.79157 1.79108 6.20865 1.79108 5.23234 2.76739L2.76788 5.23185ZM12.5 5.99951C12.2239 5.99951 12 6.22337 12 6.49951V11.4995C12 11.7757 11.7761 11.9995 11.5 11.9995C11.2239 11.9995 11 11.7757 11 11.4995V7.49951C11 7.22337 10.7761 6.99951 10.5 6.99951C10.2239 6.99951 10 7.22337 10 7.49951V11.7507C9.90238 11.7256 9.79753 11.7047 9.68702 11.6909C9.37121 11.6514 8.99892 11.6692 8.62019 11.827C8.23799 11.9863 7.88251 12.2744 7.58397 12.7222C7.50158 12.8458 7.4784 12.9996 7.52073 13.142C7.56306 13.2844 7.6665 13.4006 7.80304 13.4591C9.30624 14.1033 10.0927 15.0313 10.5112 15.8256C11.0552 16.8581 12.1127 17.9995 13.5 17.9995H13.7639C14.7109 17.9995 15.5765 17.4645 16 16.6175L16.6305 15.3566C16.8735 14.8706 17 14.3347 17 13.7913V7.49951C17 7.22337 16.7761 6.99951 16.5 6.99951C16.2239 6.99951 16 7.22337 16 7.49951V11.4995C16 11.7757 15.7761 11.9995 15.5 11.9995C15.2239 11.9995 15 11.7757 15 11.4995V6.49951C15 6.22337 14.7761 5.99951 14.5 5.99951C14.2239 5.99951 14 6.22337 14 6.49951V11.4995C14 11.7757 13.7761 11.9995 13.5 11.9995C13.2239 11.9995 13 11.7757 13 11.4995V6.49951C13 6.22337 12.7761 5.99951 12.5 5.99951ZM3.5 11.9995C3.77614 11.9995 4 12.2234 4 12.4995V12.9995H4.5C4.77614 12.9995 5 13.2234 5 13.4995C5 13.7757 4.77614 13.9995 4.5 13.9995H4V14.4995C4 14.7757 3.77614 14.9995 3.5 14.9995C3.22386 14.9995 3 14.7757 3 14.4995V13.9995H2.5C2.22386 13.9995 2 13.7757 2 13.4995C2 13.2234 2.22386 12.9995 2.5 12.9995H3V12.4995C3 12.2234 3.22386 11.9995 3.5 11.9995ZM6.5 14.9995C6.77614 14.9995 7 15.2234 7 15.4995V15.9995H7.5C7.77614 15.9995 8 16.2234 8 16.4995C8 16.7757 7.77614 16.9995 7.5 16.9995H7V17.4995C7 17.7757 6.77614 17.9995 6.5 17.9995C6.22386 17.9995 6 17.7757 6 17.4995V16.9995H5.5C5.22386 16.9995 5 16.7757 5 16.4995C5 16.2234 5.22386 15.9995 5.5 15.9995H6V15.4995C6 15.2234 6.22386 14.9995 6.5 14.9995Z" fill="#212121"/>
</svg>

<svg viewBox="0 0 20 20" fill="none" xmlns="http://www.w3.org/2000/svg" height="1em" width="1em">
  <path d="M2.768 5.232a2.5 2.5 0 0 0 0 3.535l3.464 3.465c.109.108.225.205.346.289.042-.124.1-.243.174-.354.395-.593.9-1.02 1.484-1.263A2.98 2.98 0 0 1 9 10.699v-3.2a1.5 1.5 0 0 1 2.053-1.394 1.5 1.5 0 0 1 .386-.666L8.768 2.767a2.5 2.5 0 0 0-3.536 0L2.768 5.232ZM12.5 6a.5.5 0 0 0-.5.5v5a.5.5 0 1 1-1 0v-4a.5.5 0 0 0-1 0v4.25a2.505 2.505 0 0 0-.313-.06 2.081 2.081 0 0 0-1.067.137c-.382.16-.737.447-1.036.895a.5.5 0 0 0 .219.737c1.503.644 2.29 1.572 2.708 2.367C11.055 16.858 12.113 18 13.5 18h.264A2.5 2.5 0 0 0 16 16.617l.63-1.26A3.5 3.5 0 0 0 17 13.79V7.5a.5.5 0 0 0-1 0v4a.5.5 0 1 1-1 0v-5a.5.5 0 0 0-1 0v5a.5.5 0 1 1-1 0v-5a.5.5 0 0 0-.5-.5Zm-9 6a.5.5 0 0 1 .5.5v.5h.5a.5.5 0 0 1 0 1H4v.5a.5.5 0 1 1-1 0V14h-.5a.5.5 0 1 1 0-1H3v-.5a.5.5 0 0 1 .5-.5Zm3 3a.5.5 0 0 1 .5.5v.5h.5a.5.5 0 0 1 0 1H7v.5a.5.5 0 1 1-1 0V17h-.5a.5.5 0 1 1 0-1H6v-.5a.5.5 0 0 1 .5-.5Z" fill="#212121"/>
</svg>
